src/img/icons/icon-heart.svg

<svg width="19" height="17" viewBox="0 0 19 17" fill="none" xmlns="http://www.w3.org/2000/svg">
<path fill-rule="evenodd" clip-rule="evenodd" d="M9.91293 16.2445C9.81771 16.2445 9.72239 16.2265 9.63347 16.1882C9.28007 16.0386 0.983098 12.4387 0.983098 5.42859C1.0743 2.7788 3.1901 0.721191 5.8006 0.721191C7.54412 0.721191 9.06675 1.63921 9.91293 3.0311C10.7596 1.63921 12.2823 0.721191 14.0251 0.721191C16.6345 0.721191 18.7503 2.7788 18.8421 5.40474C18.8421 12.4387 10.5451 16.0386 10.1929 16.1882C10.1034 16.2265 10.0081 16.2445 9.91293 16.2445ZM5.8006 2.10623C3.95432 2.10623 2.45755 3.5759 2.39279 5.45246C2.39324 10.8596 8.51766 14.1149 9.91293 14.7869C11.3082 14.1149 17.4331 10.8569 17.4331 5.42859C17.3676 3.5759 15.8701 2.10623 14.0251 2.10623C12.1801 2.10623 10.6829 3.5759 10.6173 5.45246C10.6048 5.82502 10.2925 6.12145 9.91293 6.12145V6.12145C9.53252 6.12145 9.22101 5.82502 9.20831 5.45246C9.14354 3.5759 7.64664 2.10623 5.8006 2.10623Z" fill="#243F4D"/>
</svg>

<svg width="19" height="17" fill="none" xmlns="http://www.w3.org/2000/svg"><path fill-rule="evenodd" clip-rule="evenodd" d="M9.913 16.244a.706.706 0 01-.28-.056c-.353-.15-8.65-3.75-8.65-10.76C1.074 2.779 3.19.722 5.801.722c1.743 0 3.266.918 4.112 2.31a4.796 4.796 0 014.112-2.31c2.61 0 4.725 2.058 4.817 4.684 0 7.034-8.297 10.634-8.65 10.783a.71.71 0 01-.28.056zM5.8 2.106c-1.847 0-3.343 1.47-3.408 3.346 0 5.408 6.125 8.663 7.52 9.335 1.395-.672 7.52-3.93 7.52-9.358-.065-1.853-1.563-3.323-3.408-3.323s-3.342 1.47-3.408 3.346a.7.7 0 01-.704.67.7.7 0 01-.705-.67C9.143 3.576 7.646 2.106 5.8 2.106z" fill="#243F4D"/></svg>
